Catalina-dark/actions/16/lighttable.svg

<?xml version="1.0" encoding="UTF-8" standalone="no"?>
<svg
   xmlns:dc="http://purl.org/dc/elements/1.1/"
   xmlns:cc="http://creativecommons.org/ns#"
   xmlns:rdf="http://www.w3.org/1999/02/22-rdf-syntax-ns#"
   xmlns:svg="http://www.w3.org/2000/svg"
   xmlns="http://www.w3.org/2000/svg"
   xmlns:sodipodi="http://sodipodi.sourceforge.net/DTD/sodipodi-0.dtd"
   xmlns:inkscape="http://www.inkscape.org/namespaces/inkscape"
   width="16"
   height="16"
   viewBox="0 0 16 16"
   version="1.1"
   id="svg7"
   sodipodi:docname="lighttable.svg"
   inkscape:version="0.92.4 5da689c313, 2019-01-14">
  <metadata
     id="metadata11">
    <rdf:RDF>
      <cc:Work
         rdf:about="">
        <dc:format>image/svg+xml</dc:format>
        <dc:type
           rdf:resource="http://purl.org/dc/dcmitype/StillImage" />
      </cc:Work>
    </rdf:RDF>
  </metadata>
  <sodipodi:namedview
     pagecolor="#ffffff"
     bordercolor="#666666"
     borderopacity="1"
     objecttolerance="10"
     gridtolerance="10"
     guidetolerance="10"
     inkscape:pageopacity="0"
     inkscape:pageshadow="2"
     inkscape:window-width="640"
     inkscape:window-height="480"
     id="namedview9"
     showgrid="false"
     inkscape:zoom="14.75"
     inkscape:cx="6.8135593"
     inkscape:cy="8"
     inkscape:window-x="0"
     inkscape:window-y="26"
     inkscape:window-maximized="0"
     inkscape:current-layer="svg7" />
  <defs
     id="defs3">
    <style
       id="current-color-scheme"
       type="text/css">
   .ColorScheme-Text { color:#5c616c; } .ColorScheme-Highlight { color:#5294e2; }
  </style>
  </defs>
  <path
     style="fill:#f1f6f8;fill-opacity:0.8509804"
     class="ColorScheme-Text"
     d="M 8 1 C 4.1459 1 1 4.1458 1 8 C 1 11.854 4.1459 15 8 15 C 11.854 15 15 11.854 15 8 C 15 4.1458 11.854 1 8 1 z M 11.535156 4.4667969 C 11.574216 4.5084699 11.612781 4.550763 11.650391 4.59375 C 11.787391 4.74055 11.915203 4.8957937 12.033203 5.0585938 C 12.102183 5.1519778 12.168155 5.247745 12.230469 5.3457031 C 12.339469 5.5188031 12.435484 5.7000187 12.521484 5.8867188 C 12.560164 5.9638897 12.596219 6.0420238 12.630859 6.1210938 L 12.638672 6.1445312 C 12.725672 6.3634312 12.793609 6.5912187 12.849609 6.8242188 C 12.876069 6.9244024 12.899732 7.0253188 12.919922 7.1269531 C 12.948172 7.2911833 12.968749 7.456817 12.980469 7.6230469 C 12.989469 7.7335389 12.994444 7.8442313 12.996094 7.9550781 C 12.996094 7.9706781 13 7.9843 13 8 C 13 8.0107 12.998047 8.02065 12.998047 8.03125 C 12.995947 8.110767 12.992228 8.1902048 12.986328 8.2695312 C 12.981328 8.3635313 12.97775 8.4563281 12.96875 8.5488281 C 12.96775 8.5520281 12.96875 8.5553936 12.96875 8.5585938 L 12.966797 8.5722656 C 12.963797 8.6012656 12.957125 8.6294031 12.953125 8.6582031 L 12.953125 8.6601562 C 12.936125 8.7872563 12.914672 8.9112563 12.888672 9.0351562 C 12.879772 9.0703904 12.871048 9.105594 12.861328 9.140625 C 12.808328 9.371125 12.736344 9.5938469 12.652344 9.8105469 C 12.645444 9.8307919 12.637989 9.8509388 12.630859 9.8710938 C 12.615859 9.9067938 12.604844 9.9432156 12.589844 9.9785156 C 12.571314 10.015919 12.552663 10.052917 12.533203 10.089844 C 12.448203 10.275844 12.351141 10.453953 12.244141 10.626953 C 12.221321 10.665603 12.197678 10.704167 12.173828 10.742188 C 12.156828 10.767188 12.143953 10.795313 12.126953 10.820312 C 12.100113 10.856682 12.072742 10.892104 12.044922 10.927734 C 11.914922 11.106734 11.777 11.279453 11.625 11.439453 C 11.59609 11.471833 11.566859 11.503536 11.537109 11.535156 C 11.496079 11.573526 11.454409 11.611477 11.412109 11.648438 C 11.260109 11.791437 11.098686 11.922922 10.929688 12.044922 C 10.894697 12.071382 10.859889 12.097517 10.824219 12.123047 C 10.811219 12.132047 10.797203 12.143344 10.783203 12.152344 C 10.737973 12.180404 10.692584 12.207775 10.646484 12.234375 C 10.474484 12.342375 10.294422 12.439391 10.107422 12.525391 C 10.075912 12.540721 10.043539 12.555643 10.011719 12.570312 C 9.9784185 12.585313 9.9474625 12.605141 9.9140625 12.619141 C 9.9003825 12.623841 9.8867669 12.628214 9.8730469 12.632812 C 9.6270469 12.731814 9.3714219 12.810141 9.1074219 12.869141 L 9.0761719 12.876953 C 9.0333719 12.885953 8.9924188 12.89825 8.9492188 12.90625 C 8.8953317 12.91585 8.8412814 12.923861 8.7871094 12.931641 C 8.6785094 12.948641 8.5697844 12.965564 8.4589844 12.976562 C 8.3744584 12.982363 8.289791 12.986781 8.2050781 12.988281 C 8.1366781 12.991281 8.069 13 8 13 C 7.993 13 7.9875687 12.998047 7.9804688 12.998047 C 7.7073487 12.995003 7.434984 12.969413 7.1660156 12.921875 C 7.1454156 12.917875 7.1240156 12.916109 7.1035156 12.912109 C 7.0078587 12.892895 6.9127284 12.87048 6.8183594 12.845703 C 6.5885594 12.789703 6.3623844 12.723672 6.1464844 12.638672 L 6.1445312 12.638672 C 6.0508283 12.599172 5.9583079 12.556859 5.8671875 12.511719 C 5.6914875 12.428719 5.5210219 12.338328 5.3574219 12.236328 C 5.2519935 12.170521 5.1490615 12.100822 5.0488281 12.027344 C 4.8819281 11.905344 4.7223656 11.773812 4.5722656 11.632812 C 4.5359589 11.60067 4.5001999 11.568342 4.4648438 11.535156 L 11.535156 4.4667969 z"
     id="path5" />
</svg>

<svg width="16" height="16" version="1.1" viewBox="0 0 16 16" xmlns="http://www.w3.org/2000/svg">
<defs>
<style id="current-color-scheme" type="text/css">.ColorScheme-Text { color:#5c616c; } .ColorScheme-Highlight { color:#5294e2; }</style>
</defs>
<path class="ColorScheme-Text" d="m8 1c-3.8541 0-7 3.1458-7 7 0 3.854 3.1459 7 7 7 3.854 0 7-3.146 7-7 0-3.8542-3.146-7-7-7zm3.5352 3.4668c0.03906 0.041673 0.077625 0.083966 0.11524 0.12695 0.137 0.1468 0.26481 0.30204 0.38281 0.46484 0.06898 0.093384 0.13495 0.18915 0.19727 0.28711 0.109 0.1731 0.20502 0.35432 0.29102 0.54102 0.03868 0.077171 0.074735 0.1553 0.10938 0.23438l0.007813 0.023437c0.087 0.2189 0.15494 0.44669 0.21094 0.67969 0.02646 0.10018 0.050123 0.2011 0.070313 0.30273 0.02825 0.16423 0.048827 0.32986 0.060547 0.49609 9e-3 0.11049 0.013975 0.22118 0.015625 0.33203 0 0.0156 0.003906 0.029222 0.003906 0.044922 0 0.0107-0.001953 0.02065-0.001953 0.03125-0.0021 0.079517-0.005819 0.15895-0.011719 0.23828-5e-3 0.094-0.008578 0.1868-0.017578 0.2793-1e-3 0.0032 0 0.0065655 0 0.0097657l-0.001953 0.013672c-3e-3 0.029-0.009672 0.057138-0.013672 0.085938v0.0019531c-0.017 0.1271-0.038453 0.2511-0.064453 0.375-0.0089 0.035234-0.017624 0.070438-0.027344 0.10547-0.053 0.2305-0.12498 0.45322-0.20898 0.66992-0.0069 0.020245-0.014355 0.040392-0.021485 0.060547-0.015 0.0357-0.026015 0.072122-0.041015 0.10742-0.01853 0.037403-0.037181 0.074401-0.056641 0.11133-0.085 0.186-0.18206 0.36411-0.28906 0.53711-0.02282 0.03865-0.046463 0.077214-0.070313 0.11524-0.017 0.025-0.029875 0.053125-0.046875 0.078124-0.02684 0.03637-0.054211 0.071792-0.082031 0.10742-0.13 0.179-0.26792 0.35172-0.41992 0.51172-0.02891 0.03238-0.058141 0.064083-0.087891 0.095703-0.04103 0.03837-0.0827 0.076321-0.125 0.11328-0.152 0.143-0.31342 0.27448-0.48242 0.39648-0.034991 0.02646-0.069799 0.052595-0.10547 0.078125-0.013 9e-3 -0.027016 0.020297-0.041016 0.029297-0.04523 0.02806-0.090619 0.055431-0.13672 0.082031-0.172 0.108-0.35206 0.20502-0.53906 0.29102-0.03151 0.01533-0.063883 0.030252-0.095703 0.044921-0.0333 0.015001-0.064256 0.034829-0.097656 0.048829-0.01368 0.0047-0.027296 0.009073-0.041016 0.013671-0.246 0.099002-0.50162 0.17733-0.76562 0.23633l-0.03125 0.007812c-0.0428 9e-3 -0.083753 0.021297-0.12695 0.029297-0.053887 0.0096-0.10794 0.017611-0.16211 0.025391-0.1086 0.017-0.21732 0.033923-0.32812 0.044921-0.084526 0.005801-0.16919 0.010219-0.25391 0.011719-0.0684 3e-3 -0.13608 0.011719-0.20508 0.011719-7e-3 0-0.012431-0.001953-0.019531-0.001953-0.27312-0.003044-0.54548-0.028634-0.81445-0.076172-0.0206-4e-3 -0.042-0.005766-0.0625-0.009766-0.095657-0.019214-0.19079-0.041629-0.28516-0.066406-0.2298-0.056-0.45598-0.12203-0.67188-0.20703h-0.0019532c-0.093703-0.0395-0.18622-0.081813-0.27734-0.12695-0.1757-0.083-0.34617-0.17339-0.50977-0.27539-0.10543-0.065807-0.20836-0.13551-0.30859-0.20898-0.1669-0.122-0.32646-0.25353-0.47656-0.39453-0.036307-0.032142-0.072066-0.06447-0.10742-0.097656l7.0703-7.0684z" fill="#f1f6f8" fill-opacity=".85098"/>
</svg>
